!!!OTL: 308. Vanitas, vanitatum vanitas.
!!!COM: L. Spohr
!!!ODT: 1818
!!!ARE: Europa, Mitteleuropa, Deutschland
!!!SCT: B0308
!!!TXL: @@DE
!!!YEM: Copyright 1995, estate of Helmut Schaffrath.
**kern	**text
*ICvox	*
*Ivox	*
*clefG2	*
*M6/8	*
*k[f#]	*
*G:	*
!LO:TX:a:t=Munter.	!
{8d	Jch
=1	=1
8.gL	hab'
16f#J	.
8g	mein
4a	Sach'
8a	auf
=2	=2
4b	Nichts
8cc	ge-
4dd	-ſtellt
8gg	juch-
=3	=3
[4.dd	-he!
8dd]	.
8r}	.
{8d	Drum
=4	=4
8.gL	iſt's
16f#J	.
8g	ſo
4a	wohl
8a	mir
=5	=5
4b	in
8cc	der
4dd	Welt,
8gg	juch-
=6	=6
[4.dd	-he!
8dd]	.
8r}	.
{8dd	Und
=7	=7
4dd	wer
8dd#	will
4ee	mein
8b	Kame-
=8	=8
4cc	-ra-
8cc#	-de
4dd}	ſein,
{8cc	der
=9	=9
8.b/	ſto-
16a	-ße
8b/	mit
4cc	an,
8a	der
=10	=10
8.b	ſtim-
16a	-me
8b	mit
4cc}	ein
{8a	bei
=11	=11
8ddL	die-
8ggJ	.
8g	-ſer
8.bL	Nei-
16ccJ	.
8a	-ge
=12	=12
4g	Wein!
8r	.
4r}	.
==	==
!!!AGN: Geselligkeits -, Trink - Lied, Freude
!!!GTL: Lieder der Freude und Geseligkeit
!!!ONB: ESAC (Essen Associative Code) Database: BOEHME
!!!AMT: compound duple
!!!AIN: vox
!!!EED: Helmut Schaffrath
!!!EEV: 1.0
!!Mel. von L. Spohr. 1818.
!!@@COMMENT:"Gedicht von Goethe. Anſang 1806, auf Veranlaſſung des Rittmeiſters von Flotow, aber
!!unabhängig von dem geiſtl. Liede ähnlichen Anfangs gedichtet und gedruckt im demſelben Jahre
!!in der ʒweiten Ausgabe der Lieder (ſ. Düntʒer JJ S. 202. Mel. von B. Spohr 1818 in Meth-
!!ſeſſels Commersbuch. Andre Melodien daʒu giebts von Ʒelter 14. Oktober 1806, von Reichardt
!!(1809), von Fr. Schneider (ſ. Finck Nr. 45). Nach der alten Melodie: "Es ʒogen drei Reiter
!!ʒum Thore hinaus, ade! " wollte Goethe das Lied geſungen haben."
!!@@END:
!!!Text: J. W. Goethe
!!!URL-scan: https://archive.org/details/BoehmeVtLieder1895/page/n259/mode/2up
!!!ENC: Anna Maria Matuszewska
!!!EEV: 2024/04/07
*-	*-
